X:181
T:Tea Room. Ru1.181, The
%%VWML:RutherfordVol1-2248-p71-0p71
Z:Transcription by Village Music Project, Steve Mansfield July 2015
F:http://www.village-music-project.org.uk/
F:http://www.vwml.org/record/RutherfordVol1/2248/p71
L:1/8
W:The first Man sets to the 2d Woman and turns
W:her .| the first Woman does the same :| Gallop down
W:and up again foot it and cast off right hand and
W:Left quite round with the second Couple :|
Q:3/8=90
K:F
|:f2a gec | d/e/fd cAF | B2d cAF | E/F/GG G3 |
f2a gec | d/e/fd cAF | B2d cAF | CFE F3 :|
|: fga bag | agf edc | fga efg | Gc=B c3 |
Bdg Acf | Bdg Acf | Bdc AGF | CFE F3 :|]
T:Bob in the Bed. Ru1.182
B:Rutherford's Country Dances Vol 1, 1756
Z:village music project, Steve Mansfield July 2015
M:6/8
L:1/8
W:The first Couple Casts of[f] and Hands round with ye
W:third Couple .| Cast up again and Hands round with
W:the second Couple :| Lead through the second Couple
W:cast up and cast of[f] again and turn your Partner .|.
W:Lead through the third Couple and cast up into the
W:second Couples Place and turn :|
Q:3/8=90
K:G
|:G>AG FED | E2F G2A | B2G c2A | B2G c2A |
Bcd EFG | ABc FED | EFG AGF | G3 G,3 :|
|: d>ed d2d | e2f g3 | c>dc cBA | c2d e3 |
cdc EFG | A>Bc FED | EFG AGF | G3 G,3 :|]
